X:1
T: The Scotch Measure
N:
C:by Purcell
S:Tune is "Amphitryon"
A:
O:
R:
M:4/4
K:G
I:speed 200
%W: A1
% voice 1 (1 lines, 45 notes)
K:G
M:4/4
L:1/16
G6 B2 G2 B2 d2 B2 |G4 g4 e6 f2 |g2 e2 g2 e2 d2 B2 d2 B2 |A4 a4 f6 f2 |g6 a2 a2 b2 a2 g2 |b2 c'2 b2 a2 d6 g2 |e2 g2 c'2 b2 a2 f2 d2 f2 |g4 b4 g8 |
%W: A2
% voice 1 (1 lines, 45 notes)
G6 B2 G2 B2 d2 B2 |G4 g4 e6 f2 |g2 e2 g2 e2 d2 B2 d2 B2 |A4 a4 f6 f2 |g6 a2 a2 b2 a2 g2 |b2 c'2 b2 a2 d6 g2 |e2 g2 c'2 b2 a2 f2 d2 f2 |g4 b4 g8 |
%W: B1
% voice 1 (1 lines, 51 notes)
d'4 b4 g2 b2 c'2 b2 |a4 f4 d2 f2 g2 f2 |g2 e2 d2 c2 B2 d2 e2 d2 |e4 a4 f6 f2 |f2 a2 b2 a2 b2 c'2 b2 a2 |e2 g2 a2 g2 a2 b2 a2 g2 |d2 e2 =f2 e2 d2 B2 d2 A2 |B4 G4 G8 |
%W: B2
% voice 1 (1 lines, 51 notes)
d'4 b4 g2 b2 c'2 b2 |a4 f4 d2 f2 g2 f2 |g2 e2 d2 c2 B2 d2 e2 d2 |e4 a4 f6 f2 |f2 a2 b2 a2 b2 c'2 b2 a2 |e2 g2 a2 g2 a2 b2 a2 g2 |d2 e2 =f2 e2 d2 B2 d2 A2 |B4 G4 G8 ||
